X: 1
T: The Highlander's Revenge
R: reel
S: https://thesession.org/tunes/2917
M: 4/4
L: 1/8
K: A
|: E2EE EFA2 | B2c2 BAF2 | E2EE EFA2 | Bce2 f4 |
|  f2ff a2ag | f2e2 cBA2 | B2BB c2cB | A2F2 E4 :|
|: B2BB c2cB | A2AB AFE2 | B2BB c2cB | Ace2 f4 |
|  f2ff a2ag | f2e2 cBA2 | B2BB c2cB | A2F2 E4 :|
